X: 1
T: Lady Harriet Hope's Reel - A
P: piffero primo a0906
O: Aird (mod)
%R: reel
F: http://ancients.sudburymuster.org/mus/sng/pdf/ladyhopeC0.pdf
Z: 2020 John Chambers <jc:trillian.mit.edu>
M: 2/4
L: 1/16
K: D
z2 \
| DFAd    A2GF | d2fe/d/ eEEF \
| DFAd    A2GF | GEAF    D2   \
::z2 \
| dAde d/e/fed | cAeA    fAeA |
| dAde d/e/fed | Adcd/e/ ddd2 \
| dAde d/e/fed | edef    gfef \
| dBAG F2dB    | AFGE    D2  :|
